X: 18459
T: Hurry The Jug
R: jig
M: 6/8
K: Edorian
|:D|EFE G2 A|BGE F2 E|DED F2 G|AdB AFD|
EFE G2 A|BAG FGA|B/c/dB AdF|E/F/GF E2:|
|:A|AFA d2 d|c/d/ec d2 A|AF/G/A d2 A|BAG FED|
E2 e e2 f|g2 e f2 d|Bee e2 f|gfe dcB|
AFA d2 d|cec d2 A|AFA d2 A|BAG F2 D|
E2 E G2 A|BGE FGA|B/c/dB AdF|EGF E2:|

